resources/svg/group.svg

<svg xmlns="http://www.w3.org/2000/svg" viewBox="0 0 24 24" fill="currentColor"><path fill="none" stroke="currentColor" stroke-width="2" d="M12,13 C14.209139,13 16,11.209139 16,9 C16,6.790861 14.209139,5 12,5 C9.790861,5 8,6.790861 8,9 C8,11.209139 9.790861,13 12,13 Z M6,22 L6,19 C6,15.6862915 8.6862915,13 12,13 C15.3137085,13 18,15.6862915 18,19 L18,22 M13,5 C13.4037285,3.33566165 15.0151447,2 17,2 C19.172216,2 20.98052,3.790861 21,6 C20.98052,8.209139 19.172216,10 17,10 L16,10 L17,10 C20.287544,10 23,12.6862915 23,16 L23,18 M11,5 C10.5962715,3.33566165 8.98485529,2 7,2 C4.82778404,2 3.01948003,3.790861 3,6 C3.01948003,8.209139 4.82778404,10 7,10 L8,10 L7,10 C3.71245602,10 1,12.6862915 1,16 L1,18"/></svg>

<svg viewBox="0 0 24 24"><path fill="none" stroke="currentColor" stroke-width="2" d="M12 13a4 4 0 1 0 0-8a4 4 0 0 0 0 8zm-6 9v-3a6 6 0 1 1 12 0v3M13 5c.404-1.664 2.015-3 4-3c2.172 0 3.98 1.79 4 4c-.02 2.21-1.828 4-4 4h-1h1c3.288 0 6 2.686 6 6v2M11 5c-.404-1.664-2.015-3-4-3c-2.172 0-3.98 1.79-4 4c.02 2.21 1.828 4 4 4h1h-1c-3.288 0-6 2.686-6 6v2"/></svg>
